X: 1
T:Dans round
M:3/4
L:1/8
K:C
E2 CD EE |DD ED CE| E2 DD ED|CD E2 D2:|D2 DD DD|
DD DD EF|EC D2 C2|:E2 CD EE|DD DG EC|\
M:2/4
D4 C4 :|

